X:1
T:Title
%%score { 1 | 2 }
L:1/8
Q:1/4=100
M:4/4
K:Ab
V:1 treble nm="Grand Piano"
V:2 bass 
V:1
 [Ec]>[=D_c] [E=c]>[Fd] [Ec]>[D_c] [E=c]>[Fd] | [Ec]4 [CA]4 | %2
w: Nellie~Place~Chandler * * * * * * *||
 [Bd]>[=Ad] [Bd]>[Ad] [Bd]>[Ed] [Fd]>[Gd] | [EAc]6 z2 | [Ec]>[DB] [CA]>[DB] c>c B>c | [Fe]2 [Fd]6 | %6
w: ||||
 [Ec]>[Fd] [Ec]>[Fd] [Ec]2 [DB]2 | [CA]6 z2 | c>_c =c2 [CE]>[_C=D] [=CE]2 | A>A B>A A2 G2 | %10
w: ||||
 [Gd]>[_Gc] [=Gd]2 [GB]>[_G=A] [=GB]2 | e>d c>B A>G F>E | c>B c2 [CE]>[_C=D] [=CE]2 | %13
w: |||
 A>A B>c [FAd]4 |[M:17/16] [EGB]>[EGB][EGe]-<[EGe][CFA]>[CFA][FBd]3/2[FBd] | %15
w: ||
[M:4/4] [EAc]>[FAd] [EGc]>[DGB] [CEA]4[Q:1/4=98][Q:1/4=97][Q:1/4=95][Q:1/4=94][Q:1/4=92][Q:1/4=91][Q:1/4=89][Q:1/4=88][Q:1/4=86][Q:1/4=84][Q:1/4=83][Q:1/4=81][Q:1/4=80][Q:1/4=78][Q:1/4=77] |] %16
w: |
V:2
 [A,,A,]>[A,,A,] [A,,A,]>[A,,A,] [A,,A,]>[A,,A,] [A,,A,]>[A,,A,] | [A,,A,]4 [A,,A,]4 | %2
 [E,G,]>[E,_G,] [E,=G,]>[E,_G,] [E,=G,]>[E,G,] [E,A,]>[E,B,] | [A,,A,]6 z2 | %4
 [A,,A,]>[A,,E,] [A,,E,]>[A,,E,] [A,E]>[K:treble][A,EA] [A,DG]>[A,C_G] | [D,A,]2 [D,A,]6 | %6
 [E,A,]>[E,A,] [E,A,]>[E,A,] [E,A,]2 [E,G,]2 | [A,,E,A,]6 z2 | %8
 [A,E]>[A,=D] [A,E]2 [A,,A,]>[A,,A,] [A,,A,]2 | [A,CE]>[A,CE] [A,DE]>[A,CE] [E,CE]2 [E,B,E]2 | %10
 [E,B,]>[E,=A,] [E,B,]2 [E,E]>[E,E] [E,E]2 | E>D C>B, A,>[K:bass]G, F,>E, | %12
 [A,E]>[A,=D] [A,E]2 [A,,A,]>[A,,A,] [A,,A,]2 | [A,CE]>[A,CE] [A,DE]>[A,EA][K:bass] D,4 | %14
[M:17/16] E,>E,C,-<C,F,>F,B,,3/2B,, |[M:4/4] E,>E, E,>E, A,,4 |] %16

